!!!OTL: Tagelied.
!!!ARE: Europa, Mitteleuropa, Deutschland
!!!SCT: A0105
!!!TXL: @@GMH
!!!YEM: Copyright 1995, estate of Helmut Schaffrath.
**kern	**text
*M4/2	*
*met(c)	*
*clefC3	*
*k[]	*
*C:ion	*
=1	=1
!LO:TX:a:t=jon.	!
{1c	I._'Wach
2A	auff,
2B	mein
=1	=1
1c	hort,
2r	.
2c	ver-
=2	=2
2d	-nimm
2d	mein
1c	wort,
=3	=3
2r}	.
{2c	merck
2e	auff
2d	was
=4	=4
1g	ich
2f	dir
*lig	*
1e	ſa-
=5-	=5-
.	.
4d	.
4c	.
1d	.
*Xlig	*
=6	=6
0c}	-ge,}
=7	=7
{1c	Mein
2A	hertʒ
2B	das
=8	=8
1c	wüt
2r	.
2c	nach
=9	=9
2d	dei-
2d	-ner
1c	güt,
=10	=10
2r}	.
{2c	laß
2e	mich
2d	fraw
=11	=11
1g	nit
2f	ver-
*lig	*
1e	-ʒa-
=12-	=12-
.	.
4d	.
4c	.
1d	.
*Xlig	*
=13	=13
1c}	-gen!}
{2r	.
2e	Jch
=14	=14
2d	ſetʒ
2d	ʒu
1c	dir
=15	=15
2r	.
2B	all
2c/	mein
2A	be-
=16	=16
1G	-gir,
2r	.
2G	das
=17	=17
2A	glaub
2B	du
1c}	mir,
=18	=18
{2r	.
2c	laß
2e	mich
2d	deinr
=19	=19
1g	trew
2f	ge-
*lig	*
1e	-nie-
=20-	=20-
.	.
4d	.
4c	.
1d	.
*Xlig	*
=21	=21
0c\ll}	-ßen
==	==
!!!GTL: Tage- oder Wächterlieder
!!!AGN: Romanze, Ballade, Lied
!! Forster III 1549 No. 6.
!!!ONB: ESAC (Essen Associative Code) Database: ALTDEU
!!!AMT: simple quadruple
!!!AIN: vox
!!!EED: Helmut Schaffrath
!!!EEV: 1.0
!!!RDF**kern: l = terminal long
!!!AMD: Ionian
!!!URL-scan: https://rosdok.uni-rostock.de/mcrviewer/recordIdentifier/rosdok_ppn738218359/iview2/phys_0273.iview2?x=-425.8853427895981&y=743.480378271779&scale=0.4823261117445838&rotation=0&layout=singlePageLayout
!!!ENC: Anna Maria Matuszewska
!!!EEV: 2024/22/02
*-	*-
